X:1
T:Rochdale Coconut Dance
M:4/4
C:
S:Bordering on the Absurd
N:for dance Craven Stomp
A:Border
O:English
R:Reel
P: AB
K:G
L:1/8
P:A
K:Emin
  EFGF  E2 B2 | EFGF E2 B2 | c2 Ac B2 GB | AGFE DEFD |
 EFGF  E2 B2 | EFGF E2 B2 | c2 Ac B2 GB | AG F2 E2 D2 :|  
P:B
    G2 BB G2 B2 | AGFG ABcA  | G2 BB G2 B2 | AGFE D2 D2  |
    G2 BB G2 B2 | AGFG ABcA  | BdcB AcBA| G2 B2 G4:|\